icons/fan-symbolic.svg

<?xml version="1.0" encoding="UTF-8" standalone="no"?>
<svg height="16px" viewBox="0 0 16 16" width="16px" xmlns="http://www.w3.org/2000/svg" sodipodi:docname="fan-alt-symbolic.svg" inkscape:version="1.2.1 (9c6d41e410, 2022-07-14)" xmlns:inkscape="http://www.inkscape.org/namespaces/inkscape" xmlns:sodipodi="http://sodipodi.sourceforge.net/DTD/sodipodi-0.dtd" xmlns:svg="http://www.w3.org/2000/svg">
    <sodipodi:namedview pagecolor="#ffffff" bordercolor="#000000" borderopacity="0.25" inkscape:showpageshadow="2" inkscape:pageopacity="0.0" inkscape:pagecheckerboard="0" inkscape:deskcolor="#d1d1d1" showgrid="true" inkscape:zoom="30" inkscape:cx="8" inkscape:cy="8" inkscape:window-width="1280" inkscape:window-height="731" inkscape:window-x="0" inkscape:window-y="0" inkscape:window-maximized="1" inkscape:current-layer="svg4">
        <inkscape:grid/>
    </sodipodi:namedview>
    <path d="m 8 0 c -0.2337216 0 -0.4588664 0.01161104 -0.6875 0.03125 c -1.8325115 1.2155086 -1.7710355 3.3349536 -0.859375 5.4042969 a 3 3 0 0 1 1.546875 -0.4355469 a 3 3 0 0 1 0.4179688 0.03125 c 0.9190606 -2.1542166 2.9099242 -3.7017793 3.5507812 -3.96875 c -1.170504 -0.67095865 -2.5228528 -1.0625 -3.96875 -1.0625 z m -4 1.09375 c -1.4013452 0.8133502 -2.5234044 2.0269804 -3.21875 3.5 c 0.11969992 2.2151144 1.9736718 3.2293618 4.2246094 3.4726562 a 3 3 0 0 1 -0.0058594 -0.0664062 a 3 3 0 0 1 0.6464844 -1.8496094 c -1.3988434 -1.8706971 -1.7343001 -4.3637546 -1.6464844 -5.0566406 z m 9.15625 1.96875 c -1.423486 -0.0441274 -2.705859 0.9231364 -3.71875 2.3046875 a 3 3 0 0 1 1.349609 1.5273437 c 2.33936 -0.2708494 4.693317 0.6923793 5.212891 1.1054688 c 0 -1.6976235 -0.535671 -3.2675964 -1.4375 -4.5625 c -0.476117 -0.2381925 -0.953086 -0.3609523 -1.40625 -0.375 z m -5.15625 2.9375 a 2 2 0 0 0 -2 2 a 2 2 0 0 0 2 2 a 2 2 0 0 0 2 -2 a 2 2 0 0 0 -2 -2 z m 2.998047 1.9335938 a 3 3 0 0 1 0.001953 0.0664062 a 3 3 0 0 1 -0.646484 1.8496094 c 1.398843 1.8706976 1.7343 4.3637556 1.646484 5.0566406 c 1.401347 -0.81335 2.523405 -2.026979 3.21875 -3.5 c -0.119631 -2.2138395 -1.971519 -3.2286145 -4.220703 -3.4726562 z m -10.998047 0.0664062 c 0 1.6976236 0.5356708 3.267596 1.4375 4.5625 c 1.973567 0.987341 3.7904611 -0.112183 5.1289062 -1.935547 a 3 3 0 0 1 -1.3476562 -1.5214842 c -2.3412811 0.2731338 -4.69874279 -0.6920352 -5.21875 -1.1054688 z m 9.546875 2.564453 a 3 3 0 0 1 -1.546875 0.435547 a 3 3 0 0 1 -0.4179688 -0.03125 c -0.9190606 2.154217 -2.9099242 3.701779 -3.5507812 3.96875 c 1.1705036 0.670958 2.5228528 1.0625 3.96875 1.0625 c 0.2337216 0 0.4588674 -0.01161 0.6875 -0.03125 c 1.832511 -1.215509 1.771035 -3.334954 0.859375 -5.404297 z" fill="#2e3434"/>
</svg>

<svg xmlns="http://www.w3.org/2000/svg" width="16" height="16"><g fill="#2e3434"><path d="M8 0c-.234 0-.459.012-.688.031-1.832 1.216-1.77 3.335-.859 5.405A3 3 0 0 1 8 5a3 3 0 0 1 .418.031c.919-2.154 2.91-3.702 3.55-3.968A7.955 7.955 0 0 0 8 0zM4 1.094a7.982 7.982 0 0 0-3.219 3.5c.12 2.215 1.974 3.23 4.225 3.472A3 3 0 0 1 5 8a3 3 0 0 1 .646-1.85C4.248 4.28 3.912 1.787 4 1.094zm9.156 1.968c-1.423-.044-2.706.924-3.719 2.305a3 3 0 0 1 1.35 1.528C13.127 6.624 15.48 7.587 16 8a7.956 7.956 0 0 0-1.438-4.563 3.386 3.386 0 0 0-1.406-.374zm-2.158 4.872L11 8a3 3 0 0 1-.646 1.85c1.398 1.87 1.734 4.363 1.646 5.056a7.982 7.982 0 0 0 3.219-3.5c-.12-2.214-1.972-3.228-4.221-3.472zM0 8c0 1.698.536 3.268 1.438 4.563 1.973.987 3.79-.113 5.128-1.936A3 3 0 0 1 5.22 9.105C2.877 9.38.52 8.413 0 8zm9.547 2.564A3 3 0 0 1 8 11a3 3 0 0 1-.418-.031c-.919 2.154-2.91 3.702-3.55 3.969a7.955 7.955 0 0 0 4.655 1.03c1.833-1.215 1.772-3.334.86-5.404z"/><circle cx="8" cy="8" r="2"/></g></svg>
